P3
# Original stylized vertical bark tile
8 8
255
104 62 41   139 83 49   151 94 55   111 65 42   91 51 36   132 77 47   157 97 56   107 61 40
96 54 37    130 73 45   162 100 57  120 69 43   98 55 37   142 84 50   149 89 52   101 57 38
112 64 41   146 87 51   135 77 47   99 55 37   87 47 33   124 69 44   166 102 59  116 67 42
105 60 39   155 95 54   145 85 50   108 61 40   94 51 35   138 80 48   154 92 54   103 58 39
92 50 34    128 71 44   159 98 56   118 67 43   103 58 38   148 89 52   140 82 49   96 53 36
109 63 41   143 85 50   150 90 52   102 57 38   88 48 33   126 71 44   164 101 58  113 65 42
100 57 38   134 77 47   157 96 55   115 65 42   96 53 36   145 87 51   151 91 53   104 59 39
106 61 40   140 83 49   148 88 52   109 62 40   90 49 34   131 75 46   160 99 57   108 62 40
