P3
# Tangent-space normal map matching the bark grooves
8 8
255
105 128 250  142 126 253  151 128 251  111 130 252  98 127 249   139 126 253  154 129 250  107 128 252
101 126 250  137 129 253  156 127 249  116 128 253  102 130 250  145 127 252  150 129 251  104 126 252
110 129 251  148 127 251  141 130 253  104 126 250  96 129 249   134 128 253  158 127 249  112 130 252
106 127 252  153 129 250  147 126 252  109 130 251  100 127 250  142 129 253  152 126 250  105 129 252
99 130 249   136 126 253  155 129 250  115 127 252  106 130 251  149 126 251  144 129 253  101 127 250
108 126 252  146 130 251  151 127 252  105 129 250  97 126 250   133 130 253  157 127 249  111 129 252
103 129 251  139 127 253  154 130 250  113 126 252  101 129 250  147 127 252  151 130 251  106 126 252
107 128 252  143 126 252  149 129 251  110 127 252  98 130 249   138 127 253  156 128 250  108 129 252
