P3
# Original clear-water ripple tile
8 8
255
49 145 196  55 157 207  70 174 218  58 160 208  45 140 193  52 151 202  68 171 216  56 158 207
42 136 189  47 145 197  56 159 208  72 177 220  61 164 211  48 144 197  54 154 204  67 170 215
61 165 212  71 176 219  58 160 208  46 142 195  51 150 201  66 169 215  73 179 221  59 162 210
54 154 204  45 140 193  50 148 200  65 168 214  75 181 223  62 165 212  49 146 198  55 157 206
47 144 197  57 159 208  70 174 218  60 163 210  44 138 191  50 149 201  65 168 214  58 160 208
43 137 190  48 146 198  58 161 209  73 178 221  63 166 213  49 145 197  55 155 205  69 172 217
62 166 213  72 177 220  59 161 209  46 141 194  52 151 202  67 170 216  74 180 222  60 163 210
55 155 205  46 141 194  51 149 200  66 169 215  74 179 222  61 164 211  48 145 197  56 158 207
